X: 37637
T: Snow On The Ground
R: polka
M: 2/4
K: Gmajor
|:gf/e/ dB|GB dg|ag/f/ ed|^cd Aa|
gf/e/ dB|GB dg|f/e/d cF|AGG2:|
|:DG/B/ dg|fe c2|DF/A/ ce|ed B2|
DG/B/ dg|fe cg|1 f/e/d cF|AGG2:|2 f/e/d ef|agg2||

